X:48
T:Reel De Montreal
M:4/4
L:1/8
R:reel
K:Gmaj
|:g2fe dcBA|GBDG B2AG|FADF AcBA|GBDG B2Bd|
g2fe dcBA| GBDG B2AG|FGAB cdef|g2gfg2d2:|
K:D
|:A2FA d2Ad| f2df a2ab| a2g2 e2g2| b2a2 f2d2|
A2FA d2Ad| f2df a2ab| a2g2 e2c2|1d2d2d4:|2d2^d2e2f2|
